X:1
T:Scarborough Fair
M:6/8
L:1/8
K:G
 G| GGG Bdd| BAB d2 z| GGG B2 d| B3 d2 z| GGG Bdd| BAB d2 B| dcB dcB|\
 AAA ABc| BAB d2 F| A3 G2||
